X: 3
T: Slide From Grace
R: slip jig
M: 9/8
L: 1/8
K: Emin
|:G2E EDE GAB|G2E EDB, D2B,|G2E EDE GAB|1 B2A AGE GED:|2 B2 AA2 G ABd||
e2B dBA GAB|DED ~D3 GBd|e2B dBA GAB|B2 AA2 G ABd|
e2B dBA GAB|DED ~D3 GAB|A2G ABD EGA|zBd edB A2 B||


